build/img/icon-test.svg

<svg width="147" height="32" viewBox="0 0 147 32" fill="none" xmlns="http://www.w3.org/2000/svg">
<path fill-rule="evenodd" clip-rule="evenodd" d="M18.4663 0C8.0782 0 0 8.40864 0 18.6302C0 22.9182 1.48405 27.2051 4.28666 30.5026L5.44 31.8201L7.5836 29.6789L6.75991 28.5229C4.45189 25.7189 3.29694 22.2573 3.29694 18.6302C3.29694 10.0558 10.2231 3.13091 18.7962 3.13091C27.369 3.13091 34.2955 10.0558 34.2955 18.6302C34.2955 22.257 32.975 25.7189 30.8301 28.5231L30.0088 29.6789L32.1519 31.8201L33.3057 30.5026C35.6138 27.0404 37.0965 22.9182 37.0965 18.6302C37.0965 8.40837 28.8544 0 18.4663 0ZM25.2259 10.387L14.8394 18.6302L18.4663 22.2568L26.7097 11.87L25.2259 10.387Z" fill="white"/>
<path fill-rule="evenodd" clip-rule="evenodd" d="M52.3573 3.021V7.30981H60.7686V29.4029H65.3833V7.30981H73.7928V3.021H52.3573ZM78.5754 3.021V29.4029H98.3592V25.2802H83.1919V18.1903H96.3819V14.0697H83.1919V7.14378H98.195V3.021H78.5754ZM112.375 3.021C107.097 3.021 103.305 6.15539 103.305 10.6067C103.305 15.5527 106.438 17.2012 112.045 18.5203C116.991 19.5094 117.981 20.6633 117.981 22.477C117.981 24.4567 116.167 25.7761 113.364 25.7761C110.066 25.7761 107.429 24.4565 104.955 22.3131L102.152 25.6101C105.284 28.4143 109.078 29.7329 113.364 30.0625C118.805 30.0625 122.761 27.0952 122.761 22.1493C122.761 17.6963 119.96 15.7163 114.354 14.3975C109.243 13.2433 108.088 12.2552 108.088 10.2768C108.088 8.46341 109.737 7.14378 112.375 7.14378C114.683 7.14378 117.156 7.96801 119.464 9.78305L121.938 6.32008C119.3 4.17702 116.167 3.021 112.375 3.021ZM125.565 3.021V7.30981H133.974V29.4029H138.591V7.30981H147V3.021H125.565Z" fill="#F25B24"/>
</svg>

<svg width="147" height="32" fill="none" xmlns="http://www.w3.org/2000/svg"><path fill-rule="evenodd" clip-rule="evenodd" d="M18.466 0C8.078 0 0 8.409 0 18.63c0 4.288 1.484 8.575 4.287 11.873L5.44 31.82l2.144-2.141-.824-1.156c-2.308-2.804-3.463-6.266-3.463-9.893 0-8.574 6.926-15.5 15.5-15.5 8.572 0 15.498 6.926 15.498 15.5 0 3.627-1.32 7.089-3.465 9.893l-.821 1.156 2.143 2.141 1.154-1.317c2.308-3.463 3.79-7.585 3.79-11.873C37.096 8.408 28.854 0 18.466 0zm6.76 10.387L14.839 18.63l3.627 3.627L26.71 11.87l-1.484-1.483z" fill="#fff"/><path fill-rule="evenodd" clip-rule="evenodd" d="M52.357 3.021V7.31h8.412v22.093h4.614V7.31h8.41V3.02H52.357zm26.218 0v26.382H98.36V25.28H83.192v-7.09h13.19v-4.12h-13.19V7.144h15.003V3.02h-19.62zm33.8 0c-5.278 0-9.07 3.134-9.07 7.586 0 4.946 3.133 6.594 8.74 7.913 4.946.99 5.936 2.143 5.936 3.957 0 1.98-1.814 3.3-4.617 3.3-3.298 0-5.935-1.32-8.409-3.464l-2.803 3.297c3.132 2.804 6.926 4.123 11.212 4.453 5.441 0 9.397-2.968 9.397-7.914 0-4.453-2.801-6.433-8.407-7.752-5.111-1.154-6.266-2.142-6.266-4.12 0-1.814 1.649-3.133 4.287-3.133 2.308 0 4.781.824 7.089 2.639l2.474-3.463c-2.638-2.143-5.771-3.299-9.563-3.299zm13.19 0V7.31h8.409v22.093h4.617V7.31H147V3.02h-21.435z" fill="#F25B24"/></svg>
